icons/glyphs/glyph-mimetype-text.svg

<?xml version="1.0" encoding="UTF-8" standalone="no"?><svg height="22" viewBox="0 0 5.8208332 5.8208335" width="22" xmlns="http://www.w3.org/2000/svg"><sodipodi:namedview/><metadata><rdf:RDF><cc:Work><dc:format>image/svg+xml</dc:format><dc:type/><dc:title/><cc:license/><dc:creator><cc:Agent><dc:title>PixelPimps &amp; CodePoets</dc:title></cc:Agent></dc:creator></cc:Work><cc:License><cc:permits/><cc:permits/><cc:requires/><cc:requires/><cc:permits/></cc:License></rdf:RDF></metadata><path d="m2.3574219 0v22h6.2851562 10.9999999v-16.5l-5.5-5.5zm2.3535156 6.609375h12.7460935v1.9980469h-12.7460935zm0 3.523437h12.7460935v2h-12.7460935zm0 3.525391h12.7460935v2h-12.7460935zm4.7070313 3.525391h8.0390622v1.998047h-8.0390622z" fill="#eee" stroke-width=".785715" transform="scale(.26458333)"/></svg>

<?xml version="1.0" encoding="UTF-8" standalone="no"?>
<!-- Created with Inkscape (http://www.inkscape.org/) -->

<svg
   xmlns:dc="http://purl.org/dc/elements/1.1/"
   xmlns:cc="http://creativecommons.org/ns#"
   xmlns:rdf="http://www.w3.org/1999/02/22-rdf-syntax-ns#"
   xmlns:svg="http://www.w3.org/2000/svg"
   xmlns="http://www.w3.org/2000/svg"
   xmlns:sodipodi="http://sodipodi.sourceforge.net/DTD/sodipodi-0.dtd"
   xmlns:inkscape="http://www.inkscape.org/namespaces/inkscape"
   width="22"
   height="22"
   viewBox="0 0 5.8208332 5.8208335"
   version="1.1"
   id="svg8"
   inkscape:version="0.92+devel 15739 custom"
   sodipodi:docname="glyph-mimetype-text.svg">
  <defs
     id="defs2">
    <linearGradient
       id="a"
       y1="392.35999"
       y2="365.35999"
       gradientUnits="userSpaceOnUse"
       x2="0"
       gradientTransform="translate(471.31814,349.93102)">
      <stop
         stop-color="#ffffff"
         stop-opacity="0"
         id="stop2" />
      <stop
         offset="1"
         stop-color="#ffffff"
         stop-opacity=".2"
         id="stop4" />
    </linearGradient>
    <linearGradient
       id="linearGradient4314"
       y1="392.35999"
       y2="365.35999"
       gradientUnits="userSpaceOnUse"
       x2="0"
       gradientTransform="translate(309.57,152.44)">
      <stop
         stop-color="#ffffff"
         stop-opacity="0"
         id="stop4310" />
      <stop
         offset="1"
         stop-color="#ffffff"
         stop-opacity=".2"
         id="stop4312" />
    </linearGradient>
  </defs>
  <sodipodi:namedview
     id="base"
     pagecolor="#002466"
     bordercolor="#ffffff"
     borderopacity="0.32156863"
     inkscape:pageopacity="1"
     inkscape:pageshadow="2"
     inkscape:zoom="18.363636"
     inkscape:cx="11"
     inkscape:cy="11"
     inkscape:document-units="px"
     inkscape:current-layer="svg8"
     inkscape:document-rotation="0"
     showgrid="false"
     units="px"
     inkscape:pagecheckerboard="false"
     borderlayer="true"
     inkscape:showpageshadow="false"
     inkscape:window-width="1920"
     inkscape:window-height="1051"
     inkscape:window-x="0"
     inkscape:window-y="0"
     inkscape:window-maximized="1" />
  <metadata
     id="metadata5">
    <rdf:RDF>
      <cc:Work
         rdf:about="">
        <dc:format>image/svg+xml</dc:format>
        <dc:type
           rdf:resource="http://purl.org/dc/dcmitype/StillImage" />
        <dc:title></dc:title>
        <cc:license
           rdf:resource="http://creativecommons.org/licenses/by/4.0/" />
        <dc:creator>
          <cc:Agent>
            <dc:title>PixelPimps &amp; CodePoets</dc:title>
          </cc:Agent>
        </dc:creator>
      </cc:Work>
      <cc:License
         rdf:about="http://creativecommons.org/licenses/by/4.0/">
        <cc:permits
           rdf:resource="http://creativecommons.org/ns#Reproduction" />
        <cc:permits
           rdf:resource="http://creativecommons.org/ns#Distribution" />
        <cc:requires
           rdf:resource="http://creativecommons.org/ns#Notice" />
        <cc:requires
           rdf:resource="http://creativecommons.org/ns#Attribution" />
        <cc:permits
           rdf:resource="http://creativecommons.org/ns#DerivativeWorks" />
      </cc:License>
    </rdf:RDF>
  </metadata>
  <path
     style="color:#000000;color-interpolation:sRGB;color-interpolation-filters:linearRGB;fill:#eeeeee;stroke-width:0.78571463;color-rendering:auto;image-rendering:auto;shape-rendering:auto;text-rendering:auto"
     d="M 2.3574219 0 L 2.3574219 22 L 8.6425781 22 L 19.642578 22 L 19.642578 5.5 L 14.142578 0 L 2.3574219 0 z M 4.7109375 6.609375 L 17.457031 6.609375 L 17.457031 8.6074219 L 4.7109375 8.6074219 L 4.7109375 6.609375 z M 4.7109375 10.132812 L 17.457031 10.132812 L 17.457031 12.132812 L 4.7109375 12.132812 L 4.7109375 10.132812 z M 4.7109375 13.658203 L 17.457031 13.658203 L 17.457031 15.658203 L 4.7109375 15.658203 L 4.7109375 13.658203 z M 9.4179688 17.183594 L 17.457031 17.183594 L 17.457031 19.181641 L 9.4179688 19.181641 L 9.4179688 17.183594 z "
     transform="scale(0.26458333)"
     id="use15"
     inkscape:label="#" />
</svg>
